apps/ui-icons/svgs/import_pass.svg

<svg viewBox="0 0 24 24" width="24" height="24"  fill="none" xmlns="http://www.w3.org/2000/svg">
<path d="M12 2C12.5523 2 13 2 13 2V11L15 9L16.4142 10.4142L12.7071 13.7071C12.6583 13.7559 12.6057 13.7986 12.5502 13.8352C12.1621 14.0915 11.6346 14.0488 11.2929 13.7071L7.58579 10.4142L9 9L11 11L11 2C11 2 11.4477 2 12 2Z" fill="#171D26"/>
<path d="M8 4C3.72544 4 1 7.17527 1 11C1 14.4059 3.6272 17.141 6.975 17.829C7.44597 17.9258 7.66667 18.2627 7.66667 18.5V20.5427C7.66667 21.971 9.47385 22.591 10.3507 21.4636L13.0446 18H15.3333C19.4658 18 23 14.9625 23 11C23 7.17527 20.2746 4 16 4C15.4477 4 15 4.44772 15 5C15 5.55228 15.4477 6 16 6C19.0892 6 21 8.19732 21 11C21 13.6649 18.5647 16 15.3333 16H12.0665L9.66667 19.0855V18.5C9.66667 17.7713 9.44748 16.9544 9 16.5C8.57578 16.0693 7.93824 15.9852 7.37763 15.87C4.7966 15.3395 3 13.2993 3 11C3 8.19732 4.91076 6 8 6C8.55228 6 9 5.55228 9 5C9 4.44772 8.55228 4 8 4Z" fill="#171D26"/>
</svg>

<svg xmlns="http://www.w3.org/2000/svg" width="24" height="24" fill="none" viewBox="0 0 24 24">
  <path fill="#171D26" d="M12 2h1v9l2-2 1.414 1.414-3.707 3.293a1.002 1.002 0 0 1-1.414 0l-3.707-3.293L9 9l2 2V2h1Z"/>
  <path fill="#171D26" d="M8 4c-4.275 0-7 3.175-7 7 0 3.406 2.627 6.141 5.975 6.829.471.097.692.434.692.671v2.043c0 1.428 1.807 2.048 2.684.92L13.045 18h2.288C19.466 18 23 14.963 23 11c0-3.825-2.725-7-7-7a1 1 0 1 0 0 2c3.09 0 5 2.197 5 5 0 2.665-2.435 5-5.667 5h-3.267l-2.4 3.085V18.5c0-.729-.219-1.546-.666-2-.424-.43-1.062-.515-1.622-.63C4.797 15.34 3 13.3 3 11c0-2.803 1.91-5 5-5a1 1 0 0 0 0-2Z"/>
</svg>
